;FLAVOR:Marlin
;TIME:4754
;Filament used: 4.73298m
;Layer height: 0.28
;MINX:78.245
;MINY:78.245
;MINZ:0.28
;MAXX:141.755
;MAXY:141.755
;MAXZ:36.12
;Generated with Cura_SteamEngine 4.7.1
M140 S60
M105
M190 S60
M104 S200
M105
M109 S200
M82 ;absolute extrusion mode
; Ender 3 Custom Start G-code
G92 E0 ; Reset Extruder
G28 ; Home all axes
G1 Z2.0 F3000 ; Move Z Axis up little to prevent scratching of Heat Bed
G1 X0.1 Y20 Z0.3 F5000.0 ; Move to start position
G1 X0.1 Y200.0 Z0.3 F1500.0 E15 ; Draw the first line
G1 X0.4 Y200.0 Z0.3 F5000.0 ; Move to side a little
G1 X0.4 Y20 Z0.3 F1500.0 E30 ; Draw the second line
G92 E0 ; Reset Extruder
G1 Z2.0 F3000 ; Move Z Axis up little to prevent scratching of Heat Bed
G1 X5 Y20 Z0.3 F5000.0 ; Move over to prevent blob squish
G92 E0
G92 E0
G1 F1500 E-6.5
;LAYER_COUNT:129
;LAYER:0
M107
G0 F6000 X87.565 Y87.52 Z0.28
;TYPE:SKIRT
G1 F1500 E0
G1 F1200 X87.772 Y87.314 E0.0136
G1 X87.973 Y87.119 E0.02664
G1 X88.172 Y86.93 E0.03942
G1 X88.755 Y86.392 E0.07636
G1 X88.933 Y86.231 E0.08753
G1 X89.07 Y86.11 E0.09604
G1 X89.288 Y85.923 E0.10942
G1 X89.929 Y85.386 E0.14836
G1 X90.13 Y85.222 E0.16044
G1 X90.254 Y85.123 E0.16782
G1 X90.471 Y84.954 E0.18063
G1 X91.141 Y84.446 E0.21978
G1 X91.384 Y84.267 E0.23384
G1 X91.56 Y84.141 E0.24392
G1 X91.754 Y84.005 E0.25495
G1 X92.393 Y83.568 E0.29099
G1 X92.609 Y83.424 E0.30308
G1 X92.806 Y83.296 E0.31402
G1 X93.047 Y83.144 E0.32729
G1 X93.748 Y82.714 E0.36558
G1 X94.008 Y82.559 E0.37968
G1 X94.185 Y82.457 E0.38919
G1 X94.384 Y82.345 E0.39982
G1 X95.058 Y81.975 E0.43563
G1 X95.283 Y81.855 E0.4475
G1 X95.493 Y81.746 E0.45852
G1 X95.767 Y81.609 E0.47278
G1 X96.496 Y81.256 E0.5105
G1 X96.717 Y81.152 E0.52187
G1 X96.962 Y81.04 E0.53441
G1 X97.241 Y80.917 E0.54861
G1 X97.984 Y80.602 E0.58619
G1 X98.258 Y80.49 E0.59997
G1 X98.588 Y80.362 E0.61645
G1 X99.343 Y80.082 E0.65395
G1 X99.649 Y79.974 E0.66906
G1 X100.037 Y79.843 E0.68813
G1 X100.306 Y79.756 E0.70129
G1 X101.027 Y79.533 E0.73644
G1 X101.497 Y79.399 E0.75919
G1 X102.393 Y79.165 E0.80231
G1 X102.662 Y79.098 E0.81522
G1 X102.807 Y79.064 E0.82216
G1 X103.043 Y79.012 E0.83341
G1 X103.781 Y78.856 E0.86853
G1 X104.07 Y78.799 E0.88225
G1 X104.544 Y78.712 E0.90469
G1 X104.882 Y78.655 E0.92065
G1 X105.654 Y78.538 E0.95701
G1 X106.004 Y78.491 E0.97345
G1 X106.251 Y78.462 E0.98503
G1 X107.049 Y78.378 E1.0224
G1 X107.497 Y78.341 E1.04333
G1 X108.261 Y78.292 E1.07898
G1 X108.55 Y78.277 E1.09245
G1 X109.133 Y78.255 E1.11962
G1 X109.482 Y78.247 E1.13587
G1 X109.979 Y78.245 E1.15902
G1 X110.761 Y78.252 E1.19543
G1 X111.123 Y78.262 E1.21229
G1 X111.744 Y78.288 E1.24123
G1 X112.228 Y78.319 E1.26382
G1 X113.122 Y78.396 E1.3056
G1 X113.372 Y78.42 E1.3173
G1 X113.656 Y78.451 E1.3306
G1 X113.979 Y78.491 E1.34575
G1 X114.726 Y78.595 E1.38087
G1 X114.958 Y78.63 E1.3918
G1 X115.312 Y78.687 E1.40849
G1 X115.644 Y78.746 E1.42419
G1 X116.376 Y78.887 E1.45891
G1 X116.671 Y78.948 E1.47293
G1 X116.897 Y78.998 E1.48371
G1 X117.118 Y79.049 E1.49427
G1 X117.929 Y79.246 E1.53313
G1 X118.386 Y79.367 E1.55515
G1 X119.22 Y79.608 E1.59557
G1 X119.487 Y79.689 E1.60856
G1 X119.727 Y79.765 E1.62029
G1 X120.007 Y79.858 E1.63402
G1 X120.743 Y80.113 E1.67029
G1 X120.992 Y80.203 E1.68262
G1 X121.273 Y80.308 E1.69659
G1 X121.575 Y80.426 E1.71169
G1 X122.117 Y80.648 E1.73896
G1 X122.793 Y80.935 E1.77316
G1 X123.102 Y81.072 E1.7889
G1 X123.633 Y81.317 E1.81613
G1 X123.872 Y81.43 E1.82844
G1 X124.255 Y81.618 E1.8483
G1 X124.673 Y81.835 E1.87023
G1 X125.658 Y82.372 E1.92247
G1 X126.014 Y82.574 E1.94153
G1 X126.586 Y82.914 E1.97252
G1 X126.972 Y83.155 E1.99371
G1 X127.69 Y83.623 E2.03362
G1 X127.942 Y83.792 E2.04774
G1 X128.14 Y83.929 E2.05896
G1 X128.328 Y84.063 E2.06971
G1 X128.939 Y84.505 E2.10482
G1 X129.186 Y84.688 E2.11913
G1 X129.379 Y84.836 E2.13046
G1 X129.565 Y84.991 E2.14173
G1 X129.568 Y84.987 E2.14197
G1 X130.221 Y85.511 E2.18095
G1 X130.398 Y85.656 E2.19161
G1 X130.527 Y85.764 E2.19944
G1 X130.774 Y85.976 E2.2146
G1 X131.404 Y86.536 E2.25385
G1 X131.682 Y86.79 E2.27138
G1 X131.904 Y87.002 E2.28567
G1 X132.48 Y87.565 E2.32318
G1 X132.692 Y87.778 E2.33717
G1 X132.877 Y87.969 E2.34955
G1 X133.055 Y88.156 E2.36158
G1 X133.603 Y88.749 E2.39917
G1 X133.769 Y88.933 E2.41071
G1 X133.89 Y89.07 E2.41922
G1 X134.077 Y89.288 E2.4326
G1 X134.614 Y89.929 E2.47154
G1 X134.844 Y90.212 E2.48852
G1 X135.025 Y90.444 E2.50222
G1 X135.551 Y91.137 E2.54273
G1 X135.733 Y91.384 E2.55702
G1 X135.859 Y91.56 E2.5671
G1 X135.995 Y91.754 E2.57813
G1 X136.432 Y92.393 E2.61417
G1 X136.576 Y92.609 E2.62626
G1 X136.704 Y92.806 E2.6372
G1 X136.856 Y93.047 E2.65047
G1 X137.286 Y93.748 E2.68876
G1 X137.441 Y94.008 E2.70286
G1 X137.543 Y94.185 E2.71237
G1 X137.655 Y94.384 E2.723
G1 X138.025 Y95.058 E2.75881
G1 X138.152 Y95.297 E2.77141
G1 X138.257 Y95.5 E2.78205
G1 X138.382 Y95.748 E2.79498
G1 X138.739 Y96.483 E2.83303
G1 X138.855 Y96.731 E2.84578
G1 X138.967 Y96.977 E2.85836
G1 X139.083 Y97.241 E2.87179
G1 X139.398 Y97.984 E2.90937
G1 X139.51 Y98.258 E2.92315
G1 X139.638 Y98.588 E2.93964
G1 X139.918 Y99.343 E2.97713
G1 X140.01 Y99.604 E2.99002
G1 X140.142 Y99.991 E3.00906
G1 X140.247 Y100.315 E3.02492
G1 X140.482 Y101.078 E3.06209
G1 X140.615 Y101.546 E3.08475
G1 X140.838 Y102.403 E3.12598
G1 X140.924 Y102.755 E3.14285
G1 X140.991 Y103.053 E3.15708
G1 X141.139 Y103.756 E3.19053
G1 X141.191 Y104.021 E3.2031
G1 X141.285 Y104.529 E3.22716
G1 X141.343 Y104.87 E3.24327
G1 X141.457 Y105.617 E3.27845
G1 X141.505 Y105.966 E3.29486
G1 X141.537 Y106.249 E3.30812
G1 X141.621 Y107.046 E3.34543
G1 X141.66 Y107.497 E3.36651
G1 X141.709 Y108.263 E3.40225
G1 X141.723 Y108.549 E3.41559
G1 X141.745 Y109.131 E3.44271
G1 X141.753 Y109.481 E3.45901
G1 X141.755 Y109.979 E3.4822
G1 X141.748 Y110.761 E3.51861
G1 X141.738 Y111.123 E3.53548
G1 X141.712 Y111.744 E3.56442
G1 X141.682 Y112.223 E3.58677
G1 X141.607 Y113.098 E3.62766
G1 X141.582 Y113.35 E3.63945
G1 X141.549 Y113.653 E3.65364
G1 X141.51 Y113.968 E3.66842
G1 X141.409 Y114.699 E3.70278
G1 X141.371 Y114.954 E3.71479
G1 X141.311 Y115.324 E3.73224
G1 X141.254 Y115.644 E3.74738
G1 X141.113 Y116.376 E3.78209
G1 X141.052 Y116.671 E3.79612
G1 X141.002 Y116.897 E3.80689
G1 X140.951 Y117.118 E3.81746
G1 X140.754 Y117.929 E3.85632
G1 X140.651 Y118.321 E3.87519
G1 X140.605 Y118.486 E3.88317
G1 X140.387 Y119.236 E3.91953
G1 X140.311 Y119.487 E3.93175
G1 X140.235 Y119.727 E3.94347
G1 X140.142 Y120.007 E3.95721
G1 X139.887 Y120.743 E3.99348
G1 X139.797 Y120.992 E4.00581
G1 X139.692 Y121.273 E4.01977
G1 X139.574 Y121.575 E4.03487
G1 X139.352 Y122.117 E4.06214
G1 X139.065 Y122.793 E4.09634
G1 X138.928 Y123.102 E4.11208
G1 X138.683 Y123.633 E4.13931
G1 X138.57 Y123.872 E4.15162
G1 X138.382 Y124.255 E4.17149
G1 X138.167 Y124.67 E4.19325
G1 X137.631 Y125.654 E4.24543
G1 X137.424 Y126.018 E4.26493
G1 X137.08 Y126.596 E4.29625
G1 X136.842 Y126.977 E4.31716
G1 X136.372 Y127.698 E4.35724
G1 X136.208 Y127.942 E4.37093
G1 X136.083 Y128.123 E4.38117
G1 X135.936 Y128.331 E4.39303
G1 X135.487 Y128.95 E4.42864
G1 X135.307 Y129.191 E4.44265
G1 X135.158 Y129.385 E4.45404
G1 X135.013 Y129.569 E4.46494
G1 X134.489 Y130.222 E4.50393
G1 X134.317 Y130.432 E4.51657
G1 X134.209 Y130.56 E4.52437
G1 X134.024 Y130.774 E4.53754
G1 X133.464 Y131.404 E4.57679
G1 X133.21 Y131.682 E4.59432
G1 X132.998 Y131.904 E4.60862
G1 X132.435 Y132.48 E4.64612
G1 X132.221 Y132.693 E4.66018
G1 X132.031 Y132.877 E4.6725
G1 X131.845 Y133.053 E4.68442
G1 X131.251 Y133.602 E4.72208
G1 X131.067 Y133.769 E4.73366
G1 X130.93 Y133.89 E4.74217
G1 X130.712 Y134.077 E4.75554
G1 X130.071 Y134.614 E4.79448
G1 X129.87 Y134.778 E4.80656
G1 X129.746 Y134.877 E4.81395
G1 X129.529 Y135.046 E4.82675
G1 X128.859 Y135.554 E4.86591
G1 X128.616 Y135.733 E4.87996
G1 X128.44 Y135.859 E4.89004
G1 X128.246 Y135.995 E4.90107
G1 X127.607 Y136.432 E4.93712
G1 X127.391 Y136.576 E4.9492
G1 X127.194 Y136.704 E4.96014
G1 X126.95 Y136.858 E4.97358
G1 X126.26 Y137.281 E5.01127
G1 X126.028 Y137.419 E5.02384
G1 X125.84 Y137.528 E5.03395
G1 X125.616 Y137.655 E5.04594
G1 X124.942 Y138.025 E5.08175
G1 X124.717 Y138.145 E5.09362
G1 X124.507 Y138.254 E5.10464
G1 X124.233 Y138.391 E5.1189
G1 X123.504 Y138.744 E5.15662
G1 X123.283 Y138.848 E5.16799
G1 X123.038 Y138.96 E5.18054
G1 X122.759 Y139.083 E5.19473
G1 X122.016 Y139.398 E5.23231
G1 X121.742 Y139.51 E5.24609
G1 X121.412 Y139.638 E5.26258
G1 X120.657 Y139.918 E5.30007
G1 X120.351 Y140.026 E5.31518
G1 X119.963 Y140.157 E5.33425
G1 X119.694 Y140.244 E5.34742
G1 X118.973 Y140.467 E5.38256
G1 X118.503 Y140.601 E5.40531
G1 X117.607 Y140.835 E5.44844
G1 X117.338 Y140.902 E5.46134
G1 X117.193 Y140.936 E5.46828
G1 X116.957 Y140.988 E5.47953
G1 X116.219 Y141.144 E5.51466
G1 X115.93 Y141.201 E5.52837
G1 X115.456 Y141.288 E5.55081
G1 X115.118 Y141.345 E5.56677
G1 X114.346 Y141.462 E5.60313
G1 X113.996 Y141.509 E5.61957
G1 X113.749 Y141.538 E5.63115
G1 X112.951 Y141.622 E5.66852
G1 X112.503 Y141.659 E5.68945
G1 X111.739 Y141.708 E5.7251
G1 X111.45 Y141.723 E5.73857
G1 X110.867 Y141.745 E5.76574
G1 X110.518 Y141.753 E5.78199
G1 X110.021 Y141.755 E5.80514
G1 X109.239 Y141.748 E5.84155
G1 X108.877 Y141.738 E5.85841
G1 X108.256 Y141.712 E5.88736
G1 X107.772 Y141.681 E5.90994
G1 X106.878 Y141.604 E5.95172
G1 X106.628 Y141.58 E5.96342
G1 X106.344 Y141.549 E5.97672
G1 X106.021 Y141.509 E5.99187
G1 X105.274 Y141.405 E6.02699
G1 X105.042 Y141.37 E6.03792
G1 X104.688 Y141.313 E6.05461
G1 X104.356 Y141.254 E6.07032
G1 X103.624 Y141.113 E6.10503
G1 X103.329 Y141.052 E6.11905
G1 X102.876 Y140.95 E6.14068
G1 X102.059 Y140.751 E6.17983
G1 X101.65 Y140.643 E6.19953
G1 X100.769 Y140.388 E6.24224
G1 X100.513 Y140.311 E6.25468
G1 X100.273 Y140.235 E6.26641
G1 X99.993 Y140.142 E6.28014
G1 X99.257 Y139.887 E6.31641
G1 X99.008 Y139.797 E6.32874
G1 X98.727 Y139.692 E6.34271
G1 X98.404 Y139.566 E6.35886
G1 X97.877 Y139.349 E6.38539
G1 X97.206 Y139.064 E6.41934
G1 X96.913 Y138.934 E6.43427
G1 X96.382 Y138.69 E6.46148
G1 X96.128 Y138.57 E6.47456
G1 X95.745 Y138.382 E6.49442
G1 X95.327 Y138.165 E6.51635
G1 X94.342 Y137.628 E6.56859
G1 X93.984 Y137.424 E6.58778
G1 X93.404 Y137.079 E6.6192
G1 X93.017 Y136.838 E6.64043
G1 X92.298 Y136.369 E6.68041
G1 X92.042 Y136.197 E6.69477
G1 X91.853 Y136.066 E6.70547
G1 X91.672 Y135.937 E6.71582
G1 X91.061 Y135.495 E6.75094
G1 X90.814 Y135.312 E6.76525
G1 X90.621 Y135.164 E6.77658
G1 X90.435 Y135.009 E6.78785
G1 X90.432 Y135.013 E6.78808
G1 X89.779 Y134.489 E6.82707
G1 X89.589 Y134.334 E6.83849
G1 X89.458 Y134.224 E6.84645
G1 X89.226 Y134.023 E6.86075
G1 X88.598 Y133.465 E6.89986
G1 X88.437 Y133.32 E6.90995
G1 X88.318 Y133.21 E6.9175
G1 X88.096 Y132.998 E6.93179
G1 X87.519 Y132.434 E6.96936
G1 X87.306 Y132.22 E6.98342
G1 X87.122 Y132.03 E6.99574
G1 X86.945 Y131.844 E7.0077
G1 X86.397 Y131.251 E7.04529
G1 X86.113 Y130.933 E7.06515
G1 X85.921 Y130.71 E7.07885
G1 X85.385 Y130.07 E7.11772
G1 X85.204 Y129.848 E7.13106
G1 X85.096 Y129.712 E7.13914
G1 X84.947 Y129.52 E7.15046
G1 X84.447 Y128.861 E7.18898
G1 X84.259 Y128.606 E7.20373
G1 X84.134 Y128.431 E7.21375
G1 X84.005 Y128.246 E7.22425
G1 X83.568 Y127.607 E7.26029
G1 X83.418 Y127.381 E7.27292
G1 X83.289 Y127.182 E7.28397
G1 X83.144 Y126.953 E7.29659
G1 X82.715 Y126.254 E7.33478
G1 X82.559 Y125.992 E7.34898
G1 X82.457 Y125.815 E7.35849
G1 X82.348 Y125.621 E7.36885
G1 X81.977 Y124.946 E7.40472
G1 X81.833 Y124.675 E7.41901
G1 X81.721 Y124.457 E7.43042
G1 X81.607 Y124.228 E7.44233
G1 X81.258 Y123.508 E7.47959
G1 X81.145 Y123.268 E7.49194
G1 X81.033 Y123.022 E7.50453
G1 X80.92 Y122.766 E7.51756
G1 X80.6 Y122.013 E7.55565
G1 X80.484 Y121.728 E7.56998
G1 X80.356 Y121.397 E7.58651
G1 X80.079 Y120.648 E7.62369
G1 X79.987 Y120.388 E7.63653
G1 X79.843 Y119.964 E7.65738
G1 X79.742 Y119.65 E7.67274
G1 X79.531 Y118.966 E7.70607
G1 X79.398 Y118.5 E7.72864
G1 X79.164 Y117.603 E7.77181
G1 X79.068 Y117.208 E7.79073
G1 X79.004 Y116.922 E7.80438
G1 X78.846 Y116.168 E7.84025
G1 X78.792 Y115.895 E7.85321
G1 X78.711 Y115.453 E7.87413
G1 X78.656 Y115.125 E7.88962
G1 X78.542 Y114.376 E7.9249
G1 X78.494 Y114.023 E7.94149
G1 X78.459 Y113.721 E7.95564
G1 X78.378 Y112.951 E7.9917
G1 X78.34 Y112.503 E8.01263
G1 X78.29 Y111.722 E8.04907
G1 X78.276 Y111.427 E8.06283
G1 X78.255 Y110.861 E8.0892
G1 X78.247 Y110.519 E8.10513
G1 X78.245 Y110.021 E8.12832
G1 X78.252 Y109.239 E8.16473
G1 X78.262 Y108.877 E8.18159
G1 X78.288 Y108.256 E8.21054
G1 X78.319 Y107.772 E8.23312
G1 X78.396 Y106.878 E8.2749
G1 X78.42 Y106.628 E8.2866
G1 X78.451 Y106.344 E8.2999
G1 X78.491 Y106.021 E8.31505
G1 X78.595 Y105.274 E8.35017
G1 X78.63 Y105.042 E8.3611
G1 X78.687 Y104.688 E8.37779
G1 X78.746 Y104.356 E8.3935
G1 X78.887 Y103.624 E8.42821
G1 X78.948 Y103.329 E8.44223
G1 X78.998 Y103.103 E8.45301
G1 X79.049 Y102.882 E8.46357
G1 X79.246 Y102.071 E8.50244
G1 X79.329 Y101.749 E8.51792
G1 X79.402 Y101.49 E8.53045
G1 X79.619 Y100.743 E8.56667
G1 X79.718 Y100.42 E8.5824
G1 X79.789 Y100.201 E8.59312
G1 X79.858 Y99.996 E8.60319
G1 X80.112 Y99.262 E8.63936
G1 X80.198 Y99.021 E8.65128
G1 X80.303 Y98.739 E8.66529
G1 X80.434 Y98.404 E8.68204
G1 X80.651 Y97.877 E8.70857
G1 X80.936 Y97.206 E8.74252
G1 X81.066 Y96.913 E8.75745
G1 X81.31 Y96.382 E8.78466
G1 X81.419 Y96.152 E8.79651
G1 X81.579 Y95.824 E8.8135
G1 X81.744 Y95.499 E8.83047
G1 X81.845 Y95.308 E8.84054
G1 X82.369 Y94.346 E8.89154
G1 X82.578 Y93.98 E8.91117
G1 X82.924 Y93.399 E8.94266
G1 X83.16 Y93.02 E8.96345
G1 X83.628 Y92.302 E9.00335
G1 X83.809 Y92.033 E9.01845
G1 X83.941 Y91.843 E9.02923
G1 X84.063 Y91.672 E9.03901
G1 X84.505 Y91.061 E9.07412
G1 X84.688 Y90.814 E9.08843
G1 X84.836 Y90.621 E9.09976
G1 X84.991 Y90.435 E9.11103
G1 X84.987 Y90.432 E9.11127
G1 X85.511 Y89.779 E9.15025
G1 X85.656 Y89.602 E9.16091
G1 X85.764 Y89.473 E9.16874
G1 X85.978 Y89.224 E9.18403
G1 X86.54 Y88.592 E9.22341
G1 X86.785 Y88.324 E9.24032
G1 X87.002 Y88.096 E9.25497
G1 X87.565 Y87.52 E9.29248
G0 F6000 X87.851 Y87.8
G1 F1200 X88.05 Y87.601 E9.30558
G1 X88.251 Y87.406 E9.31862
G1 X88.443 Y87.224 E9.33094
G1 X89.026 Y86.686 E9.36788
G1 X89.198 Y86.531 E9.37866
G1 X89.335 Y86.41 E9.38717
G1 X89.545 Y86.23 E9.40005
G1 X90.186 Y85.693 E9.43899
G1 X90.379 Y85.534 E9.45064
G1 X90.503 Y85.435 E9.45802
G1 X90.713 Y85.272 E9.4704
G1 X91.383 Y84.764 E9.50955
G1 X91.617 Y84.592 E9.52308
G1 X91.979 Y84.335 E9.54375
G1 X92.618 Y83.898 E9.5798
G1 X92.827 Y83.759 E9.59148
G1 X93.024 Y83.631 E9.60242
G1 X93.257 Y83.484 E9.61525
G1 X93.958 Y83.054 E9.65354
G1 X94.207 Y82.906 E9.66703
G1 X94.384 Y82.804 E9.67655
G1 X94.576 Y82.696 E9.6868
G1 X95.25 Y82.326 E9.72261
G1 X95.468 Y82.21 E9.7341
G1 X95.678 Y82.101 E9.74512
G1 X95.941 Y81.969 E9.75882
G1 X96.67 Y81.616 E9.79654
G1 X96.883 Y81.516 E9.8075
G1 X97.128 Y81.404 E9.82004
G1 X97.398 Y81.285 E9.83378
G1 X98.141 Y80.97 E9.87136
G1 X98.404 Y80.862 E9.8846
G1 X98.727 Y80.737 E9.90072
G1 X99.482 Y80.457 E9.93822
G1 X99.777 Y80.353 E9.95278
G1 X100.165 Y80.222 E9.97185
G1 X100.424 Y80.138 E9.98453
G1 X101.145 Y79.915 E10.01967
G1 X101.599 Y79.786 E10.04165
G1 X102.495 Y79.552 E10.08477
G1 X102.753 Y79.488 E10.09715
G1 X103.126 Y79.403 E10.11496
G1 X103.864 Y79.247 E10.15009
G1 X104.142 Y79.192 E10.16328
G1 X104.616 Y79.105 E10.18572
G1 X104.942 Y79.051 E10.20111
G1 X105.714 Y78.934 E10.23747
G1 X106.051 Y78.888 E10.2533
G1 X106.293 Y78.86 E10.26465
G1 X107.091 Y78.776 E10.30201
G1 X107.523 Y78.74 E10.3222
G1 X108.287 Y78.691 E10.35784
G1 X108.565 Y78.677 E10.37081
G1 X109.148 Y78.655 E10.39797
G1 X109.484 Y78.647 E10.41362
G1 X109.976 Y78.645 E10.43653
G1 X110.758 Y78.652 E10.47295
G1 X111.106 Y78.661 E10.48916
G1 X111.727 Y78.687 E10.5181
G1 X112.194 Y78.717 E10.53989
G1 X113.088 Y78.794 E10.58167
G1 X113.328 Y78.818 E10.5929
G1 X113.612 Y78.849 E10.6062
G1 X113.924 Y78.887 E10.62084
G1 X114.671 Y78.991 E10.65596
G1 X114.894 Y79.025 E10.66646
G1 X115.248 Y79.082 E10.68316
G1 X115.568 Y79.138 E10.69829
G1 X116.3 Y79.279 E10.733
G1 X116.585 Y79.338 E10.74655
G1 X116.811 Y79.388 E10.75733
G1 X117.023 Y79.438 E10.76747
G1 X117.834 Y79.635 E10.80633
G1 X118.275 Y79.752 E10.82758
G1 X119.109 Y79.993 E10.868
